X:0916
T:Up in the Morning early.
M:6/4
L:1/4
Q:3/4=100 "Lively"
I: || ||
Z:Jack Campin * www.campin.me.uk * 2009
K:B Minor
F|B2c  d2e|f>^ga A2A   | B>c  (d/e/)  f>e  (d/c/)|B3 f2
F|B2c  d2e|f>^ga A2A   |(B>c) (d/e/) (f>e) (d/c/)|B3 f3||
  d>ed d2d|e>fe  e3    | e>ga         b>ag       |f3 a2d|
  d>ed d2d|e>fa  b2a/g/| f>ed         c>B^A      |B3 f2|]

